X: 3
T: The Hills Of Glenorchy
R: jig
M: 6/8
L: 1/8
K: Ador
efe ABA | ede g2 e | ded GAG | BGB d2 g |efe ABA | ede g2 b | age dBG | A3 A3:|a3 a2 b | agb age | g3 g2 a | gef gfe |a3 a2 b | agb age | gfg dBG |1 ABA efg:|2 ABA g2 f||


Tune 842	Setting 14007

